data/jaro.svg

<svg width="24.129" height="17.5" viewBox="0 0 24.129 17.5" xmlns="http://www.w3.org/2000/svg"><path transform="translate(0 14) scale(.007 -.007)" d="m65-167q-25 0-25 25v159q0 19 10 30l148 148q12 11 12 32v1081q0 25 25 25h283q25 0 25-25v-1221q0-9-1.5-16.5t-9.5-15.5l-207-207q-15-15-30-15z"/><path transform="translate(4.641 14) scale(.007 -.007)" d="m370 0q-23 0-40 17l-200 200q-17 16-17 40v586q0 24 17 40l200 200q17 17 40 17h535q25 0 25-25v-1050q0-25-25-25h-208q-13 0-19.5 5t-14.5 12l-50 50-50-50q-16-17-40-17zm117 233h70q32 0 44 13t12 46v575h-126q-33 0-45-13t-12-46v-516q0-33 12-46t45-13z"/><path transform="translate(11.942 14) scale(.007 -.007)" d="m145 0q-25 0-25 25v1050q0 25 25 25h152q19 0 33-17l98-113 109 118q11 12 28 12h108q25 0 25-25v-215q0-16-2-21.5t-11-11.5l-248-183v-619q0-25-25-25z"/><path transform="translate(16.828 14) scale(.007 -.007)" d="m370 0q-23 0-40 17l-200 200q-17 16-17 40v586q0 24 17 40l200 200q17 17 40 17h303q24 0 40-17l200-200q17-16 17-40v-586q0-24-17-40l-200-200q-16-17-40-17zm117 233h70q32 0 44 13t12 46v516q0 33-12 46t-44 13h-70q-33 0-45-13t-12-46v-516q0-33 12-46t45-13z"/></svg>

<?xml version="1.0" encoding="utf-8" ?>
<svg baseProfile="tiny" height="100%" version="1.2" width="100%" xmlns="http://www.w3.org/2000/svg" xmlns:ev="http://www.w3.org/2001/xml-events" xmlns:xlink="http://www.w3.org/1999/xlink"><defs /><g><path d="M65 -167Q40 -167 40 -142V17Q40 36 50 47L198 195Q210 206 210 227V1308Q210 1333 235 1333H518Q543 1333 543 1308V87Q543 78 541.5 70.5Q540 63 532 55L325 -152Q310 -167 295 -167Z" transform="translate(0.0, 72) scale(0.036, -0.036)" /><path d="M370 0Q347 0 330 17L130 217Q113 233 113 257V843Q113 867 130 883L330 1083Q347 1100 370 1100H905Q930 1100 930 1075V25Q930 0 905 0H697Q684 0 677.5 5.0Q671 10 663 17L613 67L563 17Q547 0 523 0ZM487 233H557Q589 233 601.0 246.0Q613 259 613 292V867H487Q454 867 442.0 854.0Q430 841 430 808V292Q430 259 442.0 246.0Q454 233 487 233Z" transform="translate(23.868, 72) scale(0.036, -0.036)" /><path d="M145 0Q120 0 120 25V1075Q120 1100 145 1100H297Q316 1100 330 1083L428 970L537 1088Q548 1100 565 1100H673Q698 1100 698 1075V860Q698 844 696.0 838.5Q694 833 685 827L437 644V25Q437 0 412 0Z" transform="translate(61.416, 72) scale(0.036, -0.036)" /><path d="M370 0Q347 0 330 17L130 217Q113 233 113 257V843Q113 867 130 883L330 1083Q347 1100 370 1100H673Q697 1100 713 1083L913 883Q930 867 930 843V257Q930 233 913 217L713 17Q697 0 673 0ZM487 233H557Q589 233 601.0 246.0Q613 259 613 292V808Q613 841 601.0 854.0Q589 867 557 867H487Q454 867 442.0 854.0Q430 841 430 808V292Q430 259 442.0 246.0Q454 233 487 233Z" transform="translate(86.544, 72) scale(0.036, -0.036)" /></g></svg>
